X:1
T:Redeemed, and with the Price of Blood
T:John Robson Sweney
T:Redeemed, and with the Price of Blood
T:Public Domain
T:Public Domain
C:John Robson Sweney
Z:Public Domain
%%score ( 1 2 ) ( 3 4 )
L:1/8
M:6/8
K:Bb
V:1 treble 
V:2 treble 
V:3 bass 
V:4 bass 
V:1
 [DF] | [Fd]2 [DB] (cB)[EG] | [DF]2 [EG] [DB]2 [FB] | [Fc]2 [Fc] [FB]2 [Fc] | [Fd]3- [Fd]2 [DF] | %5
w: 1.~Re-|deemed, and with * the|of blood, Which Thou|hast shed for me,|I * stand,|
w: 2.~Re-|deemed, no long- * er|in sin, But raised|by pow’r di- vine,|My * tongue,|
w: 3.~Re-|deemed, my heart * is|with praise, My soul|true com- fort knows,|And * dai-|
w: 4.~Re-|deemed, I’ll tell * it|and o’er; Re- deemed|my song shall be,|My * watch-|
 [Fd]2 [DB] (cB)[EG] | [DF]2 [EG] [DB]2 [FB] | [Ec]2 G [Fd]2 [Ec] | [DB]3- [DB]2 || %9
w: a mon- u- * ment|grace, A wit- ness,|Lord, for Thee. *||
w: re- joic- ing, * cries|loud, All glo- ry,|Lord, be Thine. *||
w: ly feels the * calm|peace That like a|riv- er flows. *||
w: word through the * vale|death, My pass- port|home to Thee. *||
"^Refrain" [FB] | [FA]2 [FB] [Fc]2 [Ec] | (DF)[Fc] [Fd]2 [Fd] | [Ge]2 [Fd] dc[=EG] | %13
w: ||||
w: ||||
w: ||||
w: ||||
 [Fc]3- [Fc]2 [EF] | [Dd]2 [DB] (cB)[EG] | [DF]2 [EG] [DB]2 [FB] | [Ec]2 G [Fd]2 [Ec] | %17
w: ||||
w: ||||
w: ||||
w: ||||
 [DB]3- [DB]2 |] %18
w: |
w: |
w: |
w: |
V:2
 x | x3 E2 x | x6 | x6 | x6 | x3 E2 x | x6 | x2 G x3 | x5 || x | x6 | B2 x4 | x3 F2 x | x6 | %14
w: |price||||of|||||||||
w: |dead||||a-|||||||||
w: |filled||||of|||||||||
w: |o’er||||of|||||||||
 x3 E2 x | x6 | x2 G x3 | x5 |] %18
w: ||||
w: ||||
w: ||||
w: ||||
V:3
 [B,,B,] | [B,,B,]2 [B,,F,] [E,G,]2 [G,B,] | B,2 [B,,B,] [B,,F,]2 [D,B,] | %3
w: ~|~ ~ ~ ~|~ ~ ~ ~|
 [F,A,]2 [E,A,] [D,B,]2 [F,A,] | B,3- B,2 [B,,B,] | [B,,B,]2 [B,,F,] [E,G,]2 [G,B,] | %6
w: ~ ~ ~ ~|~ * ~|~ ~ ~ ~|
 B,2 [B,,B,] [B,,F,]2 [D,B,] | [E,G,]2 [E,B,] [F,B,]2 [F,A,] | [B,,B,]3- [B,,B,]2 || [B,,D] | %10
w: ~ ~ ~ ~|~ ~ Re- deemed,|and *|made|
 [F,C]2 [F,D] [F,E]2 [F,A,] | (B,,D,)[F,A,] B,2 B, | B,2 B, B,[A,C][G,B,] | [F,A,]3- [F,A,]2 F, | %14
w: by simp- le faith|An * heir of heav-|Oh, love sur- pass- ing|thought! * Oh,|
 [B,,F,]2 [B,,F,] [E,G,]2 [G,B,] | B,2 [B,,B,] [B,,F,]2 [D,B,] | [E,G,]2 [E,B,] [F,B,]2 [F,A,] | %17
w: un- mea- sured love!|||
 [B,,B,]3- [B,,B,]2 |] %18
w: |
V:4
 x | x6 | B,2 x4 | x6 | B,3- B,2 x | x6 | B,2 x4 | x6 | x5 || x | x6 | B,2 B,2 B, x | B,2 B, x3 | %13
w: ||~||~ *||~|||||en a- bove!|hu- man|
 x5 F, | x6 | B,2 x4 | x6 | x5 |] %18
w: vast,|||||

